assets/heading/portal-logo-typed.zh-cn.svg

<?xml version="1.0" encoding="UTF-8" standalone="no"?>
<!-- Created with Inkscape (http://www.inkscape.org/) -->

<svg
   width="345"
   height="96"
   viewBox="0 0 91.28125 25.4"
   version="1.1"
   id="svg645"
   sodipodi:docname="portal-logo-typed.zh-cn.svg"
   inkscape:version="1.2.1 (9c6d41e410, 2022-07-14)"
   xmlns:inkscape="http://www.inkscape.org/namespaces/inkscape"
   xmlns:sodipodi="http://sodipodi.sourceforge.net/DTD/sodipodi-0.dtd"
   xmlns="http://www.w3.org/2000/svg"
   xmlns:svg="http://www.w3.org/2000/svg">
  <sodipodi:namedview
     id="namedview647"
     pagecolor="#ffffff"
     bordercolor="#666666"
     borderopacity="1.0"
     inkscape:showpageshadow="2"
     inkscape:pageopacity="0.0"
     inkscape:pagecheckerboard="0"
     inkscape:deskcolor="#d1d1d1"
     inkscape:document-units="mm"
     showgrid="false"
     inkscape:zoom="1.8589208"
     inkscape:cx="116.7344"
     inkscape:cy="173.48776"
     inkscape:window-width="1920"
     inkscape:window-height="1093"
     inkscape:window-x="0"
     inkscape:window-y="0"
     inkscape:window-maximized="1"
     inkscape:current-layer="g2198" />
  <defs
     id="defs642" />
  <g
     inkscape:label="图层 1"
     inkscape:groupmode="layer"
     id="layer1">
    <g
       id="g2198"
       transform="translate(-179.73215,-9.525031)">
      <g
         id="g1245"
         transform="matrix(0.0267261,0,0,0.0267261,179.04564,7.4625435)">
        <circle
           style="color:#000000;display:inline;overflow:visible;visibility:visible;opacity:1;fill:#000000;fill-opacity:1;fill-rule:nonzero;stroke:none;stroke-width:2.299;stroke-linejoin:miter;stroke-miterlimit:4;stroke-dasharray:none;stroke-dashoffset:0;stroke-opacity:1;marker:none;enable-background:accumulate"
           id="path8317"
           cx="501.58014"
           cy="552.36218"
           r="475.19086" />
        <circle
           r="54.066284"
           cy="550.36218"
           cx="524"
           id="circle8306"
           style="color:#000000;display:inline;overflow:visible;visibility:visible;opacity:1;fill:#ffffff;fill-opacity:1;fill-rule:nonzero;stroke:#ffffff;stroke-width:0.963797;stroke-linejoin:miter;stroke-miterlimit:4;stroke-dasharray:none;stroke-dashoffset:0;stroke-opacity:1;marker:none;enable-background:accumulate" />
        <path
           style="color:#000000;display:inline;overflow:visible;visibility:visible;opacity:1;fill:#c00000;fill-opacity:1;fill-rule:nonzero;stroke:none;stroke-width:4.75142;stroke-linejoin:miter;stroke-miterlimit:4;stroke-dasharray:none;stroke-dashoffset:0;stroke-opacity:1;marker:none;enable-background:accumulate"
           d="M 513.8418,176.91489 A 373.65318,373.65318 0 0 0 140.18945,550.56724 373.65318,373.65318 0 0 0 513.8418,924.21958 V 741.72544 A 191.87151,191.87151 0 0 1 332.12891,550.36216 191.87151,191.87151 0 0 1 513.8418,358.85044 Z"
           id="circle8373"
           inkscape:connector-curvature="0" />
        <path
           style="color:#000000;display:inline;overflow:visible;visibility:visible;opacity:1;fill:#0070c0;fill-opacity:1;fill-rule:nonzero;stroke:none;stroke-width:4.75142;stroke-linejoin:miter;stroke-miterlimit:4;stroke-dasharray:none;stroke-dashoffset:0;stroke-opacity:1;marker:none;enable-background:accumulate"
           d="M 514.76758,394.05161 A 156.0855,156.0855 0 0 0 358.68359,550.13755 156.0855,156.0855 0 0 0 514.76758,706.22154 v -74.27149 a 82.154182,82.154182 0 0 1 -72.92188,-81.58789 82.154182,82.154182 0 0 1 72.92188,-81.5332 z"
           id="path8382"
           inkscape:connector-curvature="0" />
        <path
           style="color:#000000;display:inline;overflow:visible;visibility:visible;opacity:1;fill:#ffc000;fill-opacity:1;fill-rule:nonzero;stroke:none;stroke-width:4.75142;stroke-linejoin:miter;stroke-miterlimit:4;stroke-dasharray:none;stroke-dashoffset:0;stroke-opacity:1;marker:none;enable-background:accumulate"
           d="M 531.56836,230.53013 V 391.40318 A 159.33853,159.33853 0 0 1 683.33789,550.36216 159.33853,159.33853 0 0 1 531.56836,709.43247 V 870.29966 A 319.88508,319.88508 0 0 0 851.45312,550.41489 319.88508,319.88508 0 0 0 531.56836,230.53013 Z"
           id="path8387"
           inkscape:connector-curvature="0" />
      </g>
      <text
         xml:space="preserve"
         style="font-style:normal;font-weight:normal;font-size:16.1488px;line-height:0.85;font-family:sans-serif;fill:#000000;fill-opacity:1;stroke:none;stroke-width:0.336432"
         x="208.59567"
         y="18.631145"
         id="text1833"><tspan
           sodipodi:role="line"
           id="tspan1831"
           style="font-size:12.5602px;stroke-width:0.336432"
           x="208.59567"
           y="18.631145">AOSC</tspan><tspan
           sodipodi:role="line"
           style="font-weight:bold;font-size:16.1488px;stroke-width:0.336432"
           x="208.59567"
           y="33.390926"
           id="tspan2011">社区门户</tspan></text>
    </g>
  </g>
</svg>

<svg xmlns="http://www.w3.org/2000/svg" width="345" height="96" viewBox="0 0 91.281 25.4"><g transform="matrix(.02673 0 0 .02673 -.687 -2.062)"><circle cx="501.58" cy="552.362" r="475.191" style="color:#000;display:inline;overflow:visible;visibility:visible;opacity:1;fill:#000;fill-opacity:1;fill-rule:nonzero;stroke:none;stroke-width:2.299;stroke-linejoin:miter;stroke-miterlimit:4;stroke-dasharray:none;stroke-dashoffset:0;stroke-opacity:1;marker:none"/><circle cx="524" cy="550.362" r="54.066" style="color:#000;display:inline;overflow:visible;visibility:visible;opacity:1;fill:#fff;fill-opacity:1;fill-rule:nonzero;stroke:#fff;stroke-width:.963797;stroke-linejoin:miter;stroke-miterlimit:4;stroke-dasharray:none;stroke-dashoffset:0;stroke-opacity:1;marker:none"/><path d="M513.842 176.915a373.653 373.653 0 0 0-373.653 373.652A373.653 373.653 0 0 0 513.842 924.22V741.725a191.87 191.87 0 0 1-181.713-191.363A191.87 191.87 0 0 1 513.842 358.85Z" style="color:#000;display:inline;overflow:visible;visibility:visible;opacity:1;fill:#c00000;fill-opacity:1;fill-rule:nonzero;stroke:none;stroke-width:4.75142;stroke-linejoin:miter;stroke-miterlimit:4;stroke-dasharray:none;stroke-dashoffset:0;stroke-opacity:1;marker:none"/><path d="M514.768 394.052a156.086 156.086 0 0 0-156.084 156.086 156.086 156.086 0 0 0 156.084 156.084V631.95a82.154 82.154 0 0 1-72.922-81.588 82.154 82.154 0 0 1 72.922-81.533z" style="color:#000;display:inline;overflow:visible;visibility:visible;opacity:1;fill:#0070c0;fill-opacity:1;fill-rule:nonzero;stroke:none;stroke-width:4.75142;stroke-linejoin:miter;stroke-miterlimit:4;stroke-dasharray:none;stroke-dashoffset:0;stroke-opacity:1;marker:none"/><path d="M531.568 230.53v160.873a159.34 159.34 0 0 1 151.77 158.96 159.34 159.34 0 0 1-151.77 159.07V870.3a319.885 319.885 0 0 0 319.885-319.885A319.885 319.885 0 0 0 531.568 230.53" style="color:#000;display:inline;overflow:visible;visibility:visible;opacity:1;fill:#ffc000;fill-opacity:1;fill-rule:nonzero;stroke:none;stroke-width:4.75142;stroke-linejoin:miter;stroke-miterlimit:4;stroke-dasharray:none;stroke-dashoffset:0;stroke-opacity:1;marker:none"/></g><text xml:space="preserve" x="208.596" y="18.631" style="font-style:normal;font-weight:400;font-size:16.1488px;line-height:.85;font-family:sans-serif;fill:#000;fill-opacity:1;stroke:none;stroke-width:.336432" transform="translate(-179.732 -9.525)"><tspan x="208.596" y="18.631" style="font-size:12.5602px;stroke-width:.336432">AOSC</tspan><tspan x="208.596" y="33.391" style="font-weight:700;font-size:16.1488px;stroke-width:.336432">社区门户</tspan></text></svg>
